X:1
T:Nu semo tre
T:Nu semo tre
T:Giovanni Croce Chiozzotto
T:Source : Canzonette a 3 voci---Libro primo---Venetia---G.Vincenti---1601. Editor : André Vierendeels (13/11/14).
C:Giovanni Croce Chiozzotto
%%score [ 1 [ 2 3 ] ]
L:1/8
Q:1/4=100
M:4/4
K:C
V:1 treble nm="Canto" snm="C"
V:2 treble-8 nm="Tenor 1" snm="T 1"
V:3 treble-8 nm="Tenor 2" snm="T 2"
V:1
 z8 | z2 F2 E4 |: D4 z2 A2 | A2 A2 A2 B2 | c2 BA G2 A2 | _B2 AG F2 G2 | A6 G2 | E2 D2 E4 |1 %8
w: |Nu se-|mo, nu|se- mo tre vec-|chie- ne ne ne ne|ne ne ne ne ne|net- t'in-|a- mo- ra-|
w: |La bur-|la, che|nu sem- mo des-|den- tai la la la|la la la la la|la no|ne guar- da|
w: |Ve- la|la, che|la ri- de, e|si ne fog- gia ma|ma ma ma ma ma|ma- de-|si, mog- gia,|
 D2 F2 E4 ::2 D2 A2 A2 G2 || A2 A2 B4 | B2 G2 G2 G2 | G2 F2 E4 | E4 z2 A2 | A2 A2 G2 A2 | F6 F2 | %16
w: i, nu se-|i,/e, e se- mo|im- ber- to-|nai, in quel- la|gran bel- ta-|e, che|por- ta per in-|seg- na'el|
w: mai, la bur-|mai/a, co- an- de-|mo la vi-|a, co'an- de- mo|de la vi-|a, puo|co la ne da|d'oc- chio|
w: mog- gi- a,|* var- de chi|ghe da dri-|o, el so Ber-|ton ne di-|se, el|so Ber- ton ne|di- se,|
 F2 F2 G4 | A4 z2 A2 | G2 F2 E2 EE | E2 F2 G3 A | F3 G E3 F | D2 F2 E4 :| D8 |] %23
w: do de spa-|e, s'in|ve- ri- ta- e, na-|na na na na|na na na na|na na na-|e.|
w: la ne cri-|a, su|vo- ghe vi- a, vi-|vi vi * vi|vi vi vi vi|vi vi vi-|a,|
w: an- de con|Dio, fuor|de sto ri- ri ri|ri ri ri ri|ri ri ri ei|ri ri ri-|o.|
V:2
 z8 | z2 d2 ^c4 |: d4 z2 f2 | f2 f2 z4 | z4 e2 f2 | g2 fe d2 e2 | f6 d2 | ^c2 d2 c4 |1 %8
w: |Nu se-|mo, nu|se- mo|tre vec-|chie ne ne ne ne|net- t'in-|a- mo- ra-|
w: |La bur-|la, la|bur- la,|che nu|sem- mo des- den- tai,|la no|ne guar- da|
w: |Ve- la|la, ve-|la la,|che la|ri- de, e si ne|fog- gia,|e- si ne|
 d2 d2 ^c4 ::2 d2 ^f2 f2 g2 || e2 f2 g4 | g2 e2 e2 e2 | e2 d2 ^c4 | ^c4 z2 f2 | f2 f2 e2 f2 | %15
w: i, nu se-|i,/e, e se- mo|im- ber- to-|nai, in quel- la|gran bel- ta-|e, che|por- ta per in-|
w: mai, la bur-|mai/a, co an- de-|mo la vi-|a, co'an- de- mo|de la vi-|a, puo|co la ne da|
w: fog- gi- a,|à var- de chi|ghe da dri-|o, el so Ber-|ton ne di-|se, el|so Ber- ton ne|
 d6 d2 | d2 f2 e4 | f4 z2 f2 | e2 d2 c2 ^cc | ^c2 d2 e3 f | d3 e ^c3 d | B2 d2 ^c4 :| d8 |] %23
w: seg- na'el|do de spa-|e, s'in|ve- ri- ta- e, s'in|ve- ri- ta na|na na na na|na na na-|e.|
w: d'oc- chio|la ne cri-|a, su|vo- ghe vi- a, su|vo- ghe vi vi|vi vi vi vi|vi vi vi-|a.|
w: di- se,|an- de con|Dio, fuor|de sto ri ri ri|ri ir ri ri|ri ri ri ri|ri ri ri-|o|
V:3
 d4 ^c4 | d4 z4 |: z4 z2 d2 | d2 d2 z4 |"^b" A2 B2 c2 BA | G2 A2 _B2 AG | F6 G2 | A2 _B2 A4 |1 %8
w: Nu se-|mo,|nu|se- mo|tre vec- chie ne ne|ne ne ne ne ne|net- t'in-|a- mo- ra-|
w: La bur-|la,|la|bur- la,|la- bur- la, che nu|sem- mo des- den- tai|la non|ne guar- da|
w: Ve- la|la,|ve-|la la,|che la ri- de, e|si fog- gia ma- de-|si, mog-|gia, mog- *|
 D2 z2 z4 ::2 D2 d2 d2 B2 || c2 d2 G4 | G2 c2 c2 c2 | c2 d2 A4 | A4 z2 F2 | F2 F2 c2 A2 | _B6 B2 | %16
w: i,|i,/e, e se- mo|im- ber- to-|nai, in quel- la|gran bel- ta-|e, che|por- ta per in-|seg- na'el|
w: mai,|mai/a, co an- de-|mo la vi-|a, co'an- de- mo|de la vi-|a, puo|co la ne da|d'oc- chio|
w: gia,|gia/o, var- de chi|ghe da dri-|o, el so Ber-|ton ne di-|se, el|so Ber- ton ne|di- se,|
 _B2 d2 c4 | F4 z2 F2 | c2 d2 A2 AA |"^-natural" A2 d2 c3 A | _B3 G A3 F | G2 D2 A4 :| D8 |] %23
w: do de spa-|e, s'in|ve- ri- ta- e, s'in|ve- ri- ta na|na na na na|na na na-|e.|
w: la ne cri-|a, su|vo- ghe vi- a, su|vo- ghe vi vi|vi vi vi vi|vi vi vi-|a.|
w: an- de con|Dio, fuor|de sto ri ri ri|ri ri ri ri|ri ri ri ri|ri ri ri-|o.|

